X:720
T:Randall's Reel
C:Joe Buchanan's Scottish Tome - Page 288.0
I:288 0
Z:Carl Allison
R:Reel
L:1/8
M:4/4
K:G
"G"^ABdg "D/G"dBeB | "G"^ABdg "D/G"dBeB | "G"d2 ((3Bde) "B/G"g2 e2 | "A/D7"f4 "D7"f4 |
"D7"AdfA "A/D7"gAfA | "D7"aAgA "A/D7"gAeA | "Am"fgfe "D7"d2 e2 | "G"B4 "D7"B4 |
"G"^ABdg "D/G"dBeB | "G"^ABdg "D/G"dBeB | "G"d2 ((3Bde) "B/G"g2 e2 | "A/D7"f4 "D7"f3 A |
"D7"fAgA "A/D7"aAgA | "D7"fAeA "A/D7"dAcA | "Am"cdcA "D7"D2 F2 | "G"G4 "D7"G3 ^A |]
"G"BdgB "D/G"aBgB | "G"bBaB "D/G"gBdB | "G"gdBd "B/B"g2 b2 | "A/D7"a4 "D7"a4 |
"D7"AdfA "A/D7"gAfA | "D7"aAgA "A/D7"gAeA | "Am"fgfe "D7"d2 e2 | "G"B4 "D7"B3 ^A |
"G"^ABdg "D/G"dBeB | "G"^ABdg "D/G"dBeB | "G"gdBd "B/G"g2 b2 | "A/D7"a4 "D7"a3 A |
"D7"fAgA "A/D7"aAgA | "D7"fAeA "A/D7"dAcA | "Am"cdcA "D7"D2 F2 | "G"G4 "D7"G4 |]
